22x22/apps/org.tabos.maxcontrol.svg

<svg width="22" height="22" version="1.1" xmlns="http://www.w3.org/2000/svg">
 <path d="m8 1.5s2 1 2 3-9 8-9 11 11 6 11 6-5-2-5-4c0-3 7-8 7-10 0-3-6-6-6-6zm7 6s1 1 1 2-6 6-6 8c0 1 3 2 3 2s-1-1-1-2 5-5 5-7-2-3-2-3zm3 3s1 1 1 3c0 1-2.585786 3.585786-4 5-1 1-1 2-1 2s3-2.357312 4-3c0.841243-0.540657 3-2 3-4 0-1-3-3-3-3z" style="opacity:.2"/>
 <path d="m8 1s2 1 2 3-9 8-9 11 11 6 11 6-5-2-5-4c0-3 7-8 7-10 0-3-6-6-6-6zm7 6s1 1 1 2-6 6-6 8c0 1 3 2 3 2s-1-1-1-2 5-5 5-7-2-3-2-3zm3 3s1 1 1 3c0 1-2.585786 3.585786-4 5-1 1-1 2-1 2s3-2.357312 4-3c0.841243-0.540657 3-2 3-4 0-1-3-3-3-3z" style="fill:#ff5722"/>
 <path d="M 8 1 C 8 1 8.8839736 1.4561888 9.4765625 2.3476562 C 11.162644 3.3891734 13.706307 5.2569495 13.962891 7.1914062 C 13.974573 7.127735 14 7.0586394 14 7 C 14 4 8 1 8 1 z M 9.9589844 4.1679688 C 9.5309875 6.308773 1 12.07504 1 15 C 1 15.097664 1.0125994 15.195408 1.0351562 15.292969 C 1.4092987 12.233873 10 6.4565623 10 4.5 C 10 4.3819259 9.9721028 4.2790721 9.9589844 4.1679688 z M 15 7 C 15 7 15.389435 7.4185029 15.683594 7.9667969 C 16.217442 8.4059683 16.864619 9.1643933 16.966797 10.230469 C 16.97952 10.152755 17 10.072672 17 10 C 17 8 15 7 15 7 z M 15.958984 9.1445312 C 15.528348 10.394227 10 15.077691 10 17 C 10 17.071132 10.018676 17.142119 10.046875 17.212891 C 10.529069 15.061568 16 10.456037 16 9.5 C 16 9.3808873 15.98398 9.261954 15.958984 9.1445312 z M 18 10 C 18 10 18.295861 10.308857 18.566406 10.904297 C 19.354868 11.479474 20.720929 12.552208 20.962891 13.291016 C 20.973327 13.193407 21 13.100381 21 13 C 21 12 18 10 18 10 z M 18.974609 13.095703 C 18.841197 14.150153 16.375965 16.624035 15 18 C 14 19 14 20 14 20 C 14 20 14.109683 19.916047 14.117188 19.910156 C 14.23718 19.530895 14.480688 19.019312 15 18.5 C 16.414214 17.085786 19 14.5 19 13.5 C 19 13.356235 18.984201 13.229134 18.974609 13.095703 z M 7.0351562 17.234375 C 7.0241678 17.32276 7 17.414732 7 17.5 C 7 18.476601 8.1939797 19.449617 9.4140625 20.193359 C 10.883983 20.684944 12 21 12 21 C 12 21 7.3958087 19.15333 7.0351562 17.234375 z M 12.039062 17.345703 C 12.020834 17.400381 12 17.456342 12 17.5 C 12 17.96875 12.223572 18.429169 12.457031 18.794922 C 12.772569 18.91936 13 19 13 19 C 13 19 12.22014 18.218036 12.039062 17.345703 z " style="fill:#f4f4f7;opacity:.2"/>
</svg>

<svg width="22" height="22" xmlns="http://www.w3.org/2000/svg"><path d="M8 1.5s2 1 2 3-9 8-9 11 11 6 11 6-5-2-5-4c0-3 7-8 7-10 0-3-6-6-6-6zm7 6s1 1 1 2-6 6-6 8c0 1 3 2 3 2s-1-1-1-2 5-5 5-7-2-3-2-3zm3 3s1 1 1 3c0 1-2.586 3.586-4 5-1 1-1 2-1 2s3-2.357 4-3c.841-.54 3-2 3-4 0-1-3-3-3-3z" style="opacity:.2"/><path d="M8 1s2 1 2 3-9 8-9 11 11 6 11 6-5-2-5-4c0-3 7-8 7-10 0-3-6-6-6-6zm7 6s1 1 1 2-6 6-6 8c0 1 3 2 3 2s-1-1-1-2 5-5 5-7-2-3-2-3zm3 3s1 1 1 3c0 1-2.586 3.586-4 5-1 1-1 2-1 2s3-2.357 4-3c.841-.54 3-2 3-4 0-1-3-3-3-3z" style="fill:#ff5722"/><path d="M8 1s.884.456 1.477 1.348c1.686 1.041 4.23 2.909 4.486 4.843C13.975 7.128 14 7.06 14 7c0-3-6-6-6-6zm1.959 3.168C9.531 6.308 1 12.075 1 15c0 .098.013.195.035.293C1.41 12.233 10 6.457 10 4.5c0-.118-.028-.22-.041-.332zM15 7s.39.419.684.967c.533.439 1.18 1.197 1.283 2.263.013-.077.033-.157.033-.23 0-2-2-3-2-3zm.959 2.145C15.529 10.395 10 15.078 10 17c0 .071.019.142.047.213C10.529 15.062 16 10.456 16 9.5c0-.12-.016-.238-.041-.355zM18 10s.296.309.566.904c.789.575 2.155 1.648 2.397 2.387.01-.098.037-.19.037-.291 0-1-3-3-3-3zm.975 3.096C18.84 14.15 16.376 16.624 15 18c-1 1-1 2-1 2l.117-.09c.12-.38.364-.89.883-1.41 1.414-1.414 4-4 4-5 0-.144-.016-.27-.025-.404zm-11.94 4.138c-.01.089-.035.18-.035.266 0 .977 1.194 1.95 2.414 2.693C10.884 20.685 12 21 12 21s-4.604-1.847-4.965-3.766zm5.004.112c-.018.054-.039.11-.039.154 0 .469.224.93.457 1.295.316.124.543.205.543.205s-.78-.782-.96-1.654z" style="fill:#f4f4f7;opacity:.2"/></svg>
